X:1
T:Title
%%score { ( 1 3 ) | 2 }
L:1/8
M:4/4
K:G
V:1 treble nm="Grand Piano"
V:3 treble 
V:2 treble 
V:1
 z4 z2[Q:1/4=100] DG | B2 BB cB[CFA][DFB] | G6 GB | dddd edcd |[M:3/4] B6 |[M:1/4] Bc | %6
[M:4/4] d>d GG c2 BB | [EB][EA][EA]E [EA]2 [EG]E | DDDD GF B>A |[M:3/4] [B,DG]6 |[M:1/4] Bc | %11
[M:4/4] d2 dd edcB |[M:3/4] [Fc]6 |[M:1/4] [FA][GB] |[M:4/4] [Ac][Ac][Ac][Ac] [Bd][Ac][GB][FA] | %15
[M:3/4] [GB]6 |[M:1/4] Bc |[M:4/4] d>d GG c2 BB | [EB][EA][EA]E [EA]2 [EG]E | DDDD GF B>A | %20
[M:7/4] [B,DG]6 z2 z2 z4 |] %21
V:2
 z4 z2 G,[G,B,D] | [G,DG]2 [G,DG][G,DG] [G,EG][G,DG][K:bass]D,B,, | %2
 [G,B,]6 [G,B,][K:treble][G,DG] | [G,B,G][G,B,G][G,B,G][G,B,G] [G,CG][G,B,G][G,A,G][G,B,G] | %4
[M:3/4] [G,DG]6 |[M:1/4] [G,G][G,A,G] |[M:4/4] [G,B,G]>[G,B,G] [G,B,][G,B,] [G,EG]2 [G,DG][G,DG] | %7
 [C,C][C,C][C,C][C,C] [C,C]2 [C,G,][C,G,C] | %8
 [D,G,B,][D,G,B,][D,G,B,][D,G,B,] [D,B,D][D,A,D] [D,G,D]>[D,CD] |[M:3/4] G,,6 | %10
[M:1/4][K:treble] [G,G][G,A,G] |[M:4/4] [G,B,G]2 [G,B,G][G,B,G] [CG][B,DG][A,DF][G,DG] | %12
[M:3/4][K:bass] [D,D]2 D,>D, D,2 |[M:1/4] [D,D][D,D] | %14
[M:4/4] [D,D][D,D][D,D][D,D] [D,D][D,D][D,D][D,D] |[M:3/4] [G,D]2 G,>G, G,2 | %16
[M:1/4][K:treble] [G,G][G,A,G] |[M:4/4] [G,B,G]>[G,B,G] [G,B,][G,B,] [G,EG]2 [G,DG][G,DG] | %18
 [C,C][C,C][C,C][C,C] [C,C]2 [C,G,][C,G,C] | %19
 [D,G,B,][D,G,B,][D,G,B,][D,G,B,] [D,B,D][D,A,D] [D,G,D]>[D,CD] |[M:7/4] G,,6 z2 z2 z4 |] %21
V:3
 x8 | x8 | x8 | x8 |[M:3/4] x6 |[M:1/4] x2 |[M:4/4] x8 | x8 | x8 |[M:3/4] x6 |[M:1/4] x2 | %11
[M:4/4] x8 |[M:3/4] z2 D>D D2 |[M:1/4] x2 |[M:4/4] x8 |[M:3/4] z2 D>D D2 |[M:1/4] x2 |[M:4/4] x8 | %18
 x8 | x8 |[M:7/4] x14 |] %21

